;FLAVOR:Marlin
;TIME:127
;Filament used: 0.0603402m
;Layer height: 0.2
;MINX:94.98
;MINY:94.98
;MINZ:0.2
;MAXX:115.02
;MAXY:115.02
;MAXZ:5
;Generated with Cura_SteamEngine 4.1.0
M140 S80
M105
M190 S80
M104 S215
M105
M109 S215
M82 ;absolute extrusion mode
G21 ;metric values
G90 ;absolute positioning
M82 ;set extruder to absolute mode
M107 ;start with the fan off
G28 X0 Y0 ;move X/Y to min endstops
G28 Z0 ;move Z to min endstops
G1 Z15.0 F100 ;move the platform down 15mm
G92 E0 ;zero the extruded length
G1 F200 E3 ;extrude 3mm of feed stock
G92 E0 ;zero the extruded length again
G1 F100
M117 Printing...
G5
G92 E0
G92 E0
G1 F2400 E-6
;LAYER_COUNT:25
;LAYER:0
M106 S255
M204 S3000
M205 X10 Y10
G0 F3000 X96.933 Y97.463 Z0.2
M204 S1800
M205 X8 Y8
;TYPE:SKIRT
G1 F2400 E0
G1 X97.483 Y96.916 E0.03612
G1 X98.085 Y96.428 E0.0722
G1 X98.735 Y96.005 E0.10832
G1 X99.425 Y95.65 E0.14445
G1 X100.148 Y95.369 E0.18057
G1 X100.895 Y95.164 E0.21664
G1 X101.66 Y95.037 E0.25275
G1 X102.298 Y94.992 E0.28253
G1 X102.619 Y94.983 E0.29748
G1 X102.83 Y94.98 E0.30731
G1 X106.793 Y94.98 E0.49184
G1 X106.901 Y94.981 E0.49687
G1 X107.599 Y94.991 E0.52938
G1 X108.372 Y95.042 E0.56545
G1 X109.137 Y95.172 E0.60158
G1 X109.884 Y95.381 E0.6377
G1 X110.605 Y95.665 E0.67378
G1 X111.293 Y96.022 E0.70987
G1 X111.941 Y96.448 E0.74598
G1 X112.542 Y96.939 E0.78212
G1 X113.088 Y97.488 E0.81818
G1 X113.576 Y98.091 E0.8543
G1 X113.998 Y98.741 E0.89038
G1 X114.352 Y99.431 E0.92649
G1 X114.632 Y100.154 E0.9626
G1 X114.837 Y100.902 E0.99871
G1 X114.964 Y101.667 E1.03482
G1 X115.008 Y102.299 E1.06432
G1 X115.017 Y102.619 E1.07923
G1 X115.02 Y102.83 E1.08905
G1 X115.02 Y106.764 E1.27224
G1 X115.019 Y106.857 E1.27657
G1 X115.01 Y107.584 E1.31042
G1 X114.961 Y108.358 E1.34653
G1 X114.832 Y109.122 E1.38261
G1 X114.625 Y109.87 E1.41875
G1 X114.342 Y110.592 E1.45486
G1 X113.986 Y111.281 E1.49097
G1 X113.562 Y111.929 E1.52703
G1 X113.072 Y112.531 E1.56318
G1 X112.524 Y113.079 E1.59926
G1 X111.922 Y113.567 E1.63535
G1 X111.272 Y113.991 E1.67148
G1 X110.583 Y114.346 E1.70758
G1 X109.861 Y114.628 E1.74367
G1 X109.113 Y114.834 E1.77979
G1 X108.348 Y114.962 E1.81591
G1 X107.702 Y115.008 E1.84607
G1 X107.381 Y115.017 E1.86102
G1 X107.17 Y115.02 E1.87085
G1 X103.207 Y115.02 E2.05538
G1 X103.11 Y115.019 E2.0599
G1 X102.412 Y115.01 E2.0924
G1 X101.638 Y114.96 E2.12852
G1 X100.874 Y114.831 E2.1646
G1 X100.127 Y114.624 E2.20069
G1 X99.405 Y114.34 E2.23682
G1 X98.716 Y113.984 E2.27293
G1 X98.068 Y113.559 E2.30901
G1 X97.466 Y113.07 E2.34513
G1 X96.919 Y112.521 E2.38122
G1 X96.431 Y111.918 E2.41734
G1 X96.007 Y111.269 E2.45343
G1 X95.652 Y110.579 E2.48957
G1 X95.371 Y109.857 E2.52564
G1 X95.165 Y109.109 E2.56177
G1 X95.038 Y108.345 E2.59783
G1 X94.992 Y107.694 E2.62822
G1 X94.983 Y107.361 E2.64373
G1 X94.98 Y107.158 E2.65319
G1 X94.98 Y103.174 E2.8387
G1 X94.981 Y103.072 E2.84345
G1 X94.99 Y102.407 E2.87442
G1 X95.04 Y101.634 E2.91049
G1 X95.17 Y100.869 E2.94662
G1 X95.378 Y100.122 E2.98272
G1 X95.662 Y99.4 E3.01885
G1 X96.018 Y98.712 E3.05492
G1 X96.444 Y98.064 E3.09103
G1 X96.933 Y97.463 E3.12711
M204 S3000
M205 X10 Y10
G0 F3000 X97.484 Y97.693
M204 S1800
M205 X8 Y8
G1 F2400 X98.028 Y97.183 E3.16183
G1 X98.624 Y96.734 E3.19658
G1 X99.264 Y96.352 E3.23128
G1 X99.942 Y96.04 E3.26604
G1 X100.649 Y95.802 E3.30077
G1 X101.377 Y95.642 E3.33548
G1 X102.314 Y95.552 E3.37931
G1 X102.635 Y95.543 E3.39427
G1 X102.83 Y95.54 E3.40335
G1 X106.793 Y95.54 E3.58788
G1 X106.893 Y95.541 E3.59254
G1 X107.591 Y95.551 E3.62504
G1 X108.335 Y95.601 E3.65976
G1 X109.069 Y95.731 E3.69447
G1 X109.786 Y95.939 E3.72924
G1 X110.476 Y96.223 E3.76398
G1 X111.132 Y96.578 E3.79871
G1 X111.745 Y97.002 E3.83342
G1 X112.311 Y97.489 E3.86819
G1 X112.82 Y98.033 E3.90288
G1 X113.269 Y98.629 E3.93762
G1 X113.651 Y99.27 E3.97237
G1 X113.962 Y99.948 E4.0071
G1 X114.199 Y100.655 E4.04183
G1 X114.359 Y101.384 E4.07658
G1 X114.448 Y102.314 E4.12008
G1 X114.457 Y102.634 E4.13499
G1 X114.46 Y102.83 E4.14412
G1 X114.46 Y106.764 E4.3273
G1 X114.459 Y106.85 E4.3313
G1 X114.45 Y107.577 E4.36516
G1 X114.401 Y108.321 E4.39988
G1 X114.273 Y109.056 E4.43462
G1 X114.066 Y109.773 E4.46937
G1 X113.784 Y110.464 E4.50412
G1 X113.43 Y111.12 E4.53883
G1 X113.008 Y111.735 E4.57356
G1 X112.522 Y112.301 E4.6083
G1 X111.978 Y112.812 E4.64305
G1 X111.383 Y113.261 E4.67776
G1 X110.743 Y113.645 E4.71251
G1 X110.066 Y113.957 E4.74722
G1 X109.359 Y114.196 E4.78198
G1 X108.631 Y114.357 E4.81669
G1 X107.686 Y114.448 E4.8609
G1 X107.365 Y114.457 E4.87585
G1 X107.17 Y114.46 E4.88493
G1 X103.207 Y114.46 E5.06947
G1 X103.117 Y114.459 E5.07366
G1 X102.419 Y114.45 E5.10616
G1 X101.675 Y114.401 E5.14088
G1 X100.94 Y114.272 E5.17563
G1 X100.224 Y114.065 E5.21034
G1 X99.533 Y113.783 E5.24509
G1 X98.877 Y113.428 E5.27982
G1 X98.262 Y113.005 E5.31458
G1 X97.697 Y112.519 E5.34928
G1 X97.186 Y111.975 E5.38403
G1 X96.737 Y111.38 E5.41874
G1 X96.354 Y110.74 E5.45347
G1 X96.041 Y110.063 E5.4882
G1 X95.803 Y109.356 E5.52294
G1 X95.642 Y108.627 E5.5577
G1 X95.552 Y107.679 E5.60204
G1 X95.543 Y107.346 E5.61755
G1 X95.54 Y107.158 E5.62631
G1 X95.54 Y103.174 E5.81182
G1 X95.541 Y103.08 E5.8162
G1 X95.55 Y102.415 E5.84717
G1 X95.6 Y101.671 E5.88189
G1 X95.729 Y100.936 E5.91664
G1 X95.936 Y100.219 E5.95139
G1 X96.219 Y99.529 E5.98611
G1 X96.574 Y98.873 E6.02085
G1 X96.997 Y98.259 E6.05556
G1 X97.484 Y97.693 E6.09033
M204 S3000
M205 X10 Y10
G0 F3000 X97.55 Y98.463
M204 S1800
M205 X8 Y8
G1 F2400 X98.033 Y97.935 E6.12365
G1 X98.571 Y97.464 E6.15695
G1 X99.159 Y97.056 E6.19027
G1 X99.788 Y96.716 E6.22357
G1 X100.452 Y96.449 E6.25689
G1 X101.141 Y96.257 E6.2902
G1 X101.847 Y96.143 E6.3235
G1 X102.33 Y96.112 E6.34603
G1 X102.651 Y96.103 E6.36099
G1 X102.83 Y96.1 E6.36932
G1 X106.793 Y96.1 E6.55386
G1 X106.885 Y96.101 E6.55814
G1 X107.583 Y96.111 E6.59065
G1 X108.296 Y96.161 E6.62393
G1 X109 Y96.29 E6.65726
G1 X109.684 Y96.498 E6.69055
G1 X110.341 Y96.78 E6.72384
G1 X110.963 Y97.134 E6.75716
G1 X111.541 Y97.555 E6.79046
G1 X112.069 Y98.038 E6.82378
G1 X112.539 Y98.576 E6.85704
G1 X112.947 Y99.164 E6.89037
G1 X113.286 Y99.794 E6.92368
G1 X113.553 Y100.457 E6.95696
G1 X113.744 Y101.147 E6.9903
G1 X113.857 Y101.853 E7.02359
G1 X113.888 Y102.33 E7.04585
G1 X113.897 Y102.65 E7.06076
G1 X113.9 Y102.83 E7.06914
G1 X113.9 Y106.843 E7.256
G1 X113.891 Y107.57 E7.28986
G1 X113.842 Y108.284 E7.32318
G1 X113.714 Y108.988 E7.3565
G1 X113.508 Y109.673 E7.38981
G1 X113.227 Y110.33 E7.42308
G1 X112.874 Y110.953 E7.45643
G1 X112.454 Y111.532 E7.48973
G1 X111.972 Y112.06 E7.52302
G1 X111.435 Y112.532 E7.55631
G1 X110.847 Y112.94 E7.58964
G1 X110.218 Y113.281 E7.62295
G1 X109.555 Y113.549 E7.65625
G1 X108.866 Y113.741 E7.68956
G1 X108.16 Y113.856 E7.72287
G1 X107.67 Y113.888 E7.74573
G1 X107.349 Y113.897 E7.76068
G1 X107.17 Y113.9 E7.76902
G1 X103.207 Y113.9 E7.95355
G1 X103.124 Y113.899 E7.95742
G1 X102.426 Y113.89 E7.98992
G1 X101.713 Y113.841 E8.0232
G1 X101.009 Y113.713 E8.05652
G1 X100.324 Y113.507 E8.08983
G1 X99.667 Y113.225 E8.12312
G1 X99.045 Y112.872 E8.15642
G1 X98.466 Y112.452 E8.18973
G1 X97.937 Y111.97 E8.22305
G1 X97.466 Y111.432 E8.25635
G1 X97.058 Y110.845 E8.28964
G1 X96.718 Y110.215 E8.32297
G1 X96.45 Y109.552 E8.35627
G1 X96.258 Y108.863 E8.38957
G1 X96.144 Y108.157 E8.42287
G1 X96.111 Y107.664 E8.44588
G1 X96.102 Y107.331 E8.46139
G1 X96.1 Y107.158 E8.46945
G1 X96.1 Y103.174 E8.65496
G1 X96.101 Y103.087 E8.65901
G1 X96.11 Y102.422 E8.68998
G1 X96.159 Y101.709 E8.72326
G1 X96.288 Y101.005 E8.75659
G1 X96.495 Y100.321 E8.78986
G1 X96.777 Y99.663 E8.8232
G1 X97.13 Y99.041 E8.8565
G1 X97.55 Y98.463 E8.88977
M204 S3000
M205 X10 Y10
G0 F3000 X98.103 Y98.676
M204 S1800
M205 X8 Y8
G1 F2400 X98.58 Y98.188 E8.92154
G1 X99.112 Y97.759 E8.95337
G1 X99.69 Y97.394 E8.9852
G1 X100.307 Y97.1 E9.01702
G1 X100.953 Y96.88 E9.0488
G1 X101.621 Y96.737 E9.08061
G1 X102.345 Y96.671 E9.11446
G1 X102.666 Y96.662 E9.12942
G1 X102.83 Y96.66 E9.13705
G1 X106.793 Y96.66 E9.32159
G1 X106.877 Y96.661 E9.3255
G1 X107.575 Y96.671 E9.358
G1 X108.256 Y96.72 E9.3898
G1 X108.927 Y96.849 E9.42161
G1 X109.578 Y97.056 E9.45342
G1 X110.201 Y97.337 E9.48525
G1 X110.787 Y97.689 E9.51708
G1 X111.327 Y98.107 E9.54887
G1 X111.815 Y98.585 E9.58068
G1 X112.244 Y99.117 E9.6125
G1 X112.608 Y99.695 E9.64431
G1 X112.902 Y100.312 E9.67614
G1 X113.121 Y100.959 E9.70794
G1 X113.264 Y101.627 E9.73975
G1 X113.329 Y102.346 E9.77337
G1 X113.338 Y102.666 E9.78827
G1 X113.34 Y102.83 E9.79591
G1 X113.34 Y106.836 E9.98245
G1 X113.331 Y107.563 E10.0163
G1 X113.282 Y108.245 E10.04814
G1 X113.154 Y108.916 E10.07995
G1 X112.949 Y109.568 E10.11177
G1 X112.669 Y110.191 E10.14358
G1 X112.319 Y110.777 E10.17536
G1 X111.902 Y111.319 E10.20721
G1 X111.425 Y111.808 E10.23901
G1 X110.894 Y112.237 E10.2708
G1 X110.316 Y112.602 E10.30263
G1 X109.7 Y112.897 E10.33444
G1 X109.053 Y113.118 E10.36627
G1 X108.385 Y113.262 E10.39809
G1 X107.655 Y113.329 E10.43223
G1 X107.334 Y113.338 E10.44718
G1 X107.17 Y113.34 E10.45482
G1 X103.132 Y113.34 E10.64284
G1 X102.434 Y113.331 E10.67535
G1 X101.752 Y113.282 E10.70718
G1 X101.081 Y113.154 E10.73899
G1 X100.43 Y112.948 E10.77079
G1 X99.806 Y112.668 E10.80263
G1 X99.22 Y112.317 E10.83444
G1 X98.679 Y111.9 E10.86625
G1 X98.19 Y111.422 E10.89809
G1 X97.761 Y110.891 E10.92988
G1 X97.396 Y110.313 E10.96171
G1 X97.102 Y109.697 E10.99349
G1 X96.881 Y109.05 E11.02533
G1 X96.737 Y108.382 E11.05715
G1 X96.671 Y107.649 E11.09142
G1 X96.662 Y107.316 E11.10693
G1 X96.66 Y107.158 E11.11428
G1 X96.66 Y103.174 E11.2998
G1 X96.661 Y103.095 E11.30348
G1 X96.67 Y102.43 E11.33444
G1 X96.719 Y101.749 E11.36624
G1 X96.847 Y101.077 E11.39809
G1 X97.053 Y100.426 E11.42988
G1 X97.334 Y99.803 E11.46171
G1 X97.685 Y99.217 E11.49351
G1 X98.103 Y98.676 E11.52535
M204 S3000
M205 X10 Y10
G0 F3000 X98.654 Y98.901
M204 S1800
M205 X8 Y8
G1 F2400 X99.126 Y98.455 E11.55559
G1 X99.649 Y98.071 E11.5858
G1 X100.216 Y97.753 E11.61607
G1 X100.817 Y97.507 E11.64631
G1 X101.444 Y97.337 E11.67656
G1 X102.361 Y97.231 E11.71954
G1 X102.682 Y97.222 E11.7345
G1 X102.83 Y97.22 E11.74139
G1 X106.793 Y97.22 E11.92592
G1 X106.869 Y97.221 E11.92946
G1 X107.567 Y97.231 E11.96197
G1 X108.214 Y97.28 E11.99218
G1 X108.851 Y97.408 E12.02243
G1 X109.467 Y97.614 E12.05268
G1 X110.054 Y97.894 E12.08296
G1 X110.601 Y98.243 E12.11318
G1 X111.102 Y98.657 E12.14344
G1 X111.547 Y99.13 E12.17368
G1 X111.932 Y99.654 E12.20396
G1 X112.249 Y100.221 E12.2342
G1 X112.494 Y100.822 E12.26442
G1 X112.663 Y101.449 E12.29466
G1 X112.769 Y102.362 E12.33746
G1 X112.778 Y102.682 E12.35237
G1 X112.78 Y102.83 E12.35926
G1 X112.78 Y106.829 E12.54547
G1 X112.771 Y107.556 E12.57932
G1 X112.723 Y108.204 E12.60958
G1 X112.595 Y108.841 E12.63984
G1 X112.391 Y109.458 E12.6701
G1 X112.112 Y110.045 E12.70036
G1 X111.764 Y110.593 E12.73059
G1 X111.351 Y111.094 E12.76082
G1 X110.879 Y111.541 E12.79109
G1 X110.356 Y111.926 E12.82133
G1 X109.79 Y112.244 E12.85156
G1 X109.188 Y112.491 E12.88186
G1 X108.562 Y112.661 E12.91206
G1 X107.639 Y112.769 E12.95534
G1 X107.318 Y112.778 E12.97029
G1 X107.17 Y112.78 E12.97718
G1 X103.139 Y112.78 E13.16488
G1 X102.441 Y112.771 E13.19739
G1 X101.793 Y112.722 E13.22765
G1 X101.156 Y112.595 E13.25789
G1 X100.54 Y112.39 E13.28812
G1 X99.953 Y112.111 E13.31838
G1 X99.405 Y111.762 E13.34864
G1 X98.904 Y111.349 E13.37887
G1 X98.457 Y110.877 E13.40914
G1 X98.072 Y110.354 E13.43938
G1 X97.754 Y109.787 E13.46965
G1 X97.508 Y109.186 E13.49989
G1 X97.338 Y108.559 E13.53014
G1 X97.231 Y107.634 E13.5735
G1 X97.222 Y107.301 E13.58901
G1 X97.22 Y107.158 E13.59567
G1 X97.22 Y103.103 E13.78449
G1 X97.229 Y102.438 E13.81546
G1 X97.278 Y101.79 E13.84572
G1 X97.406 Y101.153 E13.87597
G1 X97.611 Y100.536 E13.90624
G1 X97.891 Y99.95 E13.93649
G1 X98.24 Y99.402 E13.96674
G1 X98.654 Y98.901 E13.997
M204 S3000
M205 X10 Y10
G1 F2400 E7.997
;MESH:467f4474-bffe-4a63-b29b-a2bbfdabcfac.stl
G0 F3000 X101.835 Y103.354
G0 X103.354 Y103.354
G0 X103.9 Y106.1
M204 S1800
M205 X8 Y8
;TYPE:WALL-INNER
G1 F2400 E13.997
G1 F1500 X103.9 Y103.9 E14.09944
G1 X106.1 Y103.9 E14.20188
G1 X106.1 Y106.1 E14.30432
G1 X103.9 Y106.1 E14.40677
M204 S3000
M205 X10 Y10
G0 F3000 X103.34 Y106.66
M204 S1800
M205 X8 Y8
G1 F1500 X103.34 Y103.34 E14.56136
G1 X106.66 Y103.34 E14.71595
G1 X106.66 Y106.66 E14.87055
G1 X103.34 Y106.66 E15.02514
M204 S3000
M205 X10 Y10
G0 F3000 X102.78 Y107.22
M204 S1800
M205 X8 Y8
;TYPE:WALL-OUTER
G1 F1500 X102.78 Y102.78 E15.23188
G1 X107.22 Y102.78 E15.43863
G1 X107.22 Y107.22 E15.64537
G1 X102.78 Y107.22 E15.85212
M204 S3000
M205 X10 Y10
G0 F3000 X102.78 Y107.02
G0 X103.41 Y106.59
G0 X104.45 Y105.55
M204 S1800
M205 X8 Y8
;TYPE:SKIN
G1 F1500 X104.45 Y104.45 E15.90334
G1 X105.55 Y104.45 E15.95456
G1 X105.55 Y105.55 E16.00578
G1 X104.45 Y105.55 E16.057
M204 S3000
M205 X10 Y10
G0 F3000 X105.289 Y105.289
M204 S1800
M205 X8 Y8
G1 F1500 X104.709 Y104.709 E16.09519
M204 S3000
M205 X10 Y10
;MESH:NONMESH
G0 F3000 X103.5 Y106.5
;TIME_ELAPSED:14.648229
;LAYER:1
M140 S80
;MESH:467f4474-bffe-4a63-b29b-a2bbfdabcfac.stl
G0 F4500 X103.5 Y106.5 Z0.4
M204 S1800
M205 X8 Y8
;TYPE:WALL-INNER
G1 F1000 X103.5 Y103.5 E16.19498
G1 X106.5 Y103.5 E16.29476
G1 X106.5 Y106.5 E16.39454
G1 X103.5 Y106.5 E16.49432
M204 S3000
M205 X10 Y10
G0 F4500 X103.1 Y106.9
M204 S1800
M205 X8 Y8
G1 F1000 X103.1 Y103.1 E16.6207
G1 X106.9 Y103.1 E16.74709
G1 X106.9 Y106.9 E16.87348
G1 X103.1 Y106.9 E16.99987
M204 S3000
M205 X10 Y10
G0 F4500 X102.7 Y107.3
M204 S1800
M205 X8 Y8
;TYPE:WALL-OUTER
G1 F1000 X102.7 Y102.7 E17.15287
G1 X107.3 Y102.7 E17.30586
G1 X107.3 Y107.3 E17.45886
G1 X102.7 Y107.3 E17.61186
M204 S3000
M205 X10 Y10
G0 F4500 X102.7 Y107.1
G0 X103.17 Y106.83
G0 X103.89 Y106.11
M204 S1800
M205 X8 Y8
;TYPE:SKIN
G1 F600 X103.89 Y103.89 E17.68569
G1 X106.11 Y103.89 E17.75953
G1 X106.11 Y106.11 E17.83337
G1 X103.89 Y106.11 E17.90721
M204 S3000
M205 X10 Y10
G0 F4500 X104.069 Y104.668
M204 S1800
M205 X8 Y8
G1 F600 X104.668 Y104.069 E17.93538
M204 S3000
M205 X10 Y10
G0 F4500 X105.233 Y104.069
M204 S1800
M205 X8 Y8
G1 F600 X104.069 Y105.233 E17.99013
M204 S3000
M205 X10 Y10
G0 F4500 X104.069 Y105.799
M204 S1800
M205 X8 Y8
G1 F600 X105.799 Y104.069 E18.07151
M204 S3000
M205 X10 Y10
G0 F4500 X105.929 Y104.505
M204 S1800
M205 X8 Y8
G1 F600 X104.505 Y105.929 E18.13849
M204 S3000
M205 X10 Y10
G0 F4500 X105.071 Y105.929
M204 S1800
M205 X8 Y8
G1 F600 X105.929 Y105.071 E18.17885
M204 S3000
M205 X10 Y10
G0 F4500 X105.929 Y105.636
M204 S1800
M205 X8 Y8
G1 F600 X105.636 Y105.929 E18.19263
M204 S3000
M205 X10 Y10
;MESH:NONMESH
G0 F4500 X103.5 Y106.5
;TIME_ELAPSED:19.599267
;LAYER:2
;MESH:467f4474-bffe-4a63-b29b-a2bbfdabcfac.stl
G0 F6000 X103.5 Y106.5 Z0.6
M204 S1800
M205 X8 Y8
;TYPE:WALL-INNER
G1 F1500 X103.5 Y103.5 E18.29241
G1 X106.5 Y103.5 E18.39219
G1 X106.5 Y106.5 E18.49197
G1 X103.5 Y106.5 E18.59175
M204 S3000
M205 X10 Y10
G0 F6000 X103.1 Y106.9
M204 S1800
M205 X8 Y8
G1 F1500 X103.1 Y103.1 E18.71814
G1 X106.9 Y103.1 E18.84453
G1 X106.9 Y106.9 E18.97091
G1 X103.1 Y106.9 E19.0973
M204 S3000
M205 X10 Y10
G0 F6000 X102.7 Y107.3
M204 S1800
M205 X8 Y8
;TYPE:WALL-OUTER
G1 F1500 X102.7 Y102.7 E19.2503
G1 X107.3 Y102.7 E19.4033
G1 X107.3 Y107.3 E19.55629
G1 X102.7 Y107.3 E19.70929
M204 S3000
M205 X10 Y10
G0 F6000 X102.7 Y107.1
G0 X103.17 Y106.83
G0 X103.89 Y106.11
M204 S1800
M205 X8 Y8
;TYPE:SKIN
G1 F600 X103.89 Y103.89 E19.78313
G1 X106.11 Y103.89 E19.85696
G1 X106.11 Y106.11 E19.9308
G1 X103.89 Y106.11 E20.00464
M204 S3000
M205 X10 Y10
G0 F6000 X104.232 Y105.929
M204 S1800
M205 X8 Y8
G1 F600 X104.069 Y105.766 E20.01231
M204 S3000
M205 X10 Y10
G0 F6000 X104.069 Y105.201
M204 S1800
M205 X8 Y8
G1 F600 X104.798 Y105.929 E20.04657
M204 S3000
M205 X10 Y10
G0 F6000 X105.363 Y105.929
M204 S1800
M205 X8 Y8
G1 F600 X104.069 Y104.635 E20.10744
M204 S3000
M205 X10 Y10
G0 F6000 X104.069 Y104.069
M204 S1800
M205 X8 Y8
G1 F600 X105.929 Y105.929 E20.19493
M204 S3000
M205 X10 Y10
G0 F6000 X105.929 Y105.363
M204 S1800
M205 X8 Y8
G1 F600 X104.635 Y104.069 E20.25579
M204 S3000
M205 X10 Y10
G0 F6000 X105.201 Y104.069
M204 S1800
M205 X8 Y8
